X:41
T:Round the May-Pole THO3.041
O:England;London
M:6/8
L:1/8
Z:vmp. Peter Dunk 2011.from a transcription by Fynn Titford-Mock 2006-9
B:Thompson's Compleat Collection of 200 Favourite Country Dances Vol. III.1765-72
Q:3/8=110
K:Bb
B>cB d2 f|B>cB d2 f|bag fed|cdB AGF|B>cB d2 f|B>cB d2 b|agf cf=e|f3 F3:|
|:f2 f f2 g|_agf edc|e2 e e2 f|gfe dcB|BFB dBd|fdf bfe|dcB F>BA| B3 B,3:|

